!!!!SEGMENT: pl-wtm--r-2519--007_hertz-michal--kanon.krn
!!!cenid: 18xx:3090
!!!COM: Hertz, Michał
!!!COM-rismID:
!!!CDT: 1844/09/28-~1918
!!!CNT: Polish
!!!OTL: Kanon [7]
!!!PDT:
!!!AGN:
!!!SMS-siglum: PL-Wtm
!!!SMS-shelfmark: R 2519
!!!SMS-shelfwork: 007 W
!!!SMS-variant:
!!!SMS-altvar:
!!!NIFC-rismSourceID: 1001082119
!!!NIFC-islandoraID:
!!!URL-pdf-islandora:
!!!URL-scan:
!!!ONB-nifc: UWAGA: 9 Kanonów num. 001-009. Skan 0011-0012 (Canon in der 4te)
!!!AIN: 2 piano
!!!key: C
**kern	**kern
*part2	*part1
*staff2	*staff1
*I"[Fortepian]	*I"[Fortepian]
*I'	*I'
*Ipiano	*Ipiano
*ICklav	*ICklav
*clefF4	*clefG2
*k[]	*k[]
*C:	*C:
*M4/4	*M4/4
*met(c)	*met(c)
*>[A,B,B1,B,B2,C]	*>[A,B,B1,B,B2,C]
=1	=1
*>A	*>A
!!LO:TX:t=P:problem:all\left, middle, right:global
8r	1r
8C\	.
4E\	.
8D\L	.
16C\L	.
16D\JJ	.
[4E\	.
=2!|:	=2!|:
*>B	*>B
4E\]	8r
.	8f/
8D\L	4a/
8C\J	.
4BB/	8g/L
.	16f/L
.	16g/JJ
8C/L	[4a/
16BB/L	.
16C/JJ	.
=3	=3
8D\L	4a/]
8C\	.
8BB\	8g/L
8AA\J	8f/J
8GG/L	4e/
16FF/L	.
16GG/JJ	.
8AA/L	8f/L
8GG/J	16e/L
.	16f/JJ
=4	=4
8r	8g/L
8BB\	8f/
4C\	8e/
.	8d/J
!LO:TX:t=P:problem:4D poprawione na 4E	!
4E\	8c/L
.	16B/L
.	16c/JJ
8F#X\L	8d/L
16E\L	8c/J
16F#\JJ	.
=5	=5
4G\	8r
.	8e/
8F#X\L	4f#X/
8E\J	.
8F#\L	4a/
16E\L	.
16F#\JJ	.
4G\	8b/L
.	16a/L
.	16b/JJ
!!linebreak:original
=6	=6
8E\L	4cc\
8F#Xi\	.
8G\	8b\L
8A\J	8a\J
8G\L	8b\L
8F#\	16a\L
.	16b\JJ
8E\	4cc\
16D\L	.
16E\JJ	.
=7	=7
8F#X\L	8a\L
8G\J	8b\
[4A\	8cc\
.	8dd\J
8A\L]	8cc/L
16G\L	8b/
16A\JJ	.
8c\L	8a/
8B\J	16g/L
.	16a/JJ
=8	=8
8d\L	8b\L
8A\J	8cc\J
8G\	[4dd\
16F#Xi\L	.
16G\JJ	.
8F#\L	8dd\L]
8E\	16cc\L
.	16dd\J
8D\	8ff#X\
8G\J	8ee\J
=9	=9
!!LO:TX:a:B:t=I
*>B1	*>B1
!!LO:TX:t=P:problem:oznaczenie wolty (I) na środku taktu
8r	8gg\L
8C\	8dd\
4E\	8cc\
.	16b\L
.	16cc\JJ
8D\L	8b\L
16C\L	8a\
16D\JJ	.
4E\	8g\
.	8cc\J
=10	=10
!!LO:TX:a:B:t=II
*>B2	*>B2
!!LO:TX:t=P:problem:oznaczenie wolty (II) na środku taktu
8r	8gg\L
8G\	8dd\
4e\	8cc\
.	16b\L
.	16cc\JJ
8d\L	8b\L
8c\	8a\
8B\	8g\
8A\J	8cc\J
!!linebreak:original
=11	=11
*>C	*>C
8B\L	8r
16A\	8cc\
16B\	.
8c\	4aa\
8d>\J	.
8e>\L	8gg\L
8d>\	8ff\
8c>\	8ee\
8B>\J	8dd\J
=12	=12
8c\L	8ee\L
8B\	16dd\L
.	16ee\J
8A\	8ff\
8G\J	8gg\J
8F\L	8aa\L
8E\	8gg\
8F\	8ff\
8G\J	8ee\J
=13	=13
8A\L	8ff\L
16G\L	8ee\
16A\J	.
8B\	8dd\
8c\J	8cc\J
8d\L	8b\L
8c\	8a\
8B\	8b\
8A\J	8cc\J
=14	=14
8B\L	8dd\L
8A\	16cc\
.	16dd\
8G\	8ee\
8A\J	8ff\J
8B\L	8gg\L
16A\L	8ff\
16B\J	.
8c\	8ee\
[8f\J	8dd\J
=15	=15
4f\]	8ee\L
.	8dd\
4a\	8cc\
.	8dd\J
4g\	8ee\L
.	16dd\L
.	16ee\J
8a\L	8ff\
8g\J	[8bb\J
=16	=16
8d\L	4bb\]
8c\J	.
16B\LL	4ddd\
16A\	.
16G\	.
16F\JJ	.
!LO:TX:t=P:problem:8E i 8G poprawione na 5E	!
4E\	4ccc\
8G\L	8ddd\L
8A\J	8ccc\J
!!pagebreak:original
=17	=17
8r	4ee\
8C\	.
4E\	16ccc\LL
.	16bb\
.	16aa\
.	16gg\JJ
8D\L	4bb\
16C\L	.
16D\JJ	.
[4E\	4b\
=18	=18
4E\]	8r
.	8f/
8D\L	4a/
8C\J	.
4BB/	8g/L
.	16f/L
.	16g/JJ
8C/L	[>4a/
16BB/L	.
16C/JJ	.
=19	=19
8D\L	4a/]
8C\	.
8BB\	8g/L
8AA\J	8f/J
8GG/L	4e/
16FF/L	.
16GG/J	.
8AA/	8f/L
8GG/J	8e/J
=20	=20
8r	8g/L
8BB/	8f/
4C/	8e/
.	8d/J
4E\	8c/L
.	16B/L
.	16c/J
!LO:TX:t=P:problem:wykreślony #	!
8F\L	8d/
16E\L	8c/J
16F\JJ	.
=21	=21
4G\	8r
.	8e/
8F\L	4f/
8E\J	.
8F\L	4a/
16E\L	.
16F\JJ	.
4G\	8b/L
.	16a/L
.	16b/JJ
!!linebreak:original
=22	=22
8E\L	4cc\
8F\	.
8G\	8b\L
8A\J	8a\J
8G\L	8b\L
8F\	16a\L
.	16b\JJ
8E\	4cc\
16D\L	.
16E\JJ	.
=23	=23
8F\L	8a\L
8G\J	8b\
[4A\	8cc\
.	8dd\J
8A\L]	8cc\L
16G\L	8b\
16A\J	.
8c\	8a\
8B\J	16g\L
.	16a\JJ
=24	=24
1c;<	1g;
!	!LO:TX:a:i:t=d. 7/11. 73. III
==	==
*-	*-
!!!system-decoration: {(s1,s2)}
!!!RDF**kern: > = above
!!!RDF**kern: < = below
!!!RDF**kern: i = editorial accidental
!!!ENC: Katarzyna Serwa
!!!END: 2021-10-23
!!!ENC: Anastazja Marusiak
!!!END: 2021-10-22
